X: 6
T: Patsy Geary's
Z: Jeremy
S: https://thesession.org/tunes/325#setting24694
R: slide
M: 12/8
L: 1/8
K: Dmaj
|:F2 A AFA BBB A2 G|F2 A d2 e f3 fef|
g2g fgf efe d2 B|1 A2A AFD ~E3 EDE:|2 ABA efe d3 d2 e||
|:f2 e f2 e f2 e fga|A2A BAF A2A ABd|
e2d e2d e2d efa|1 baf afe d3 d2e:|2 baf afe d3 d2A||

